X:2
T:I Can't Get Started
C:Vernon Duke
L:1/4
M:C
I:linebreak $
K:C
C/E/G/ S|:"C" B c"Am" (3A E F |"Dm" G2"G7" z/ E/G/B/ |"E7" d e"Am" (3c G A |$
"Am" B2"D7" x4"Abm" z/ C/"Db7"E/G/ |"C" B c"Am" (3A E F |"Dm" G"Em" G"Fm" (3_A C D ||1$"Bb7" E4 "A7" x4|
"Ab7" z2"G7" z/ C/E/G/ :|2"C6" C4 "Dm" x4|"C6" z C"F" E G ||$[K:D]"Em" A4 "A7" x4|
"Em" (3F F F"A7" (3F =F E |"D" A4 "Em" x4|"D" (3E E E"D6" (3E _E D ||$[K:C]"Dm" A4 "G7" x4|
"Dm" (3E E E"G7" (3E _E D |"Em" G2"Eb7" A2 |"D7" (3B d B"G7" "_D.S. al 3rd end." G/C/E/G/ ||3
"C6" C4 |]

